X: 71
T: Confirma hoc, deus
C: Gaspar van Weerbeke
%%abc-version 2.0
%%abcx-abcm2ps-target-version 5.9.1 (29 Sep 2008)
%%abc-creator hum2abc beta
%%abcx-conversion-date 2022/03/06 13:06:00
%%abc-copyright Copyright 1994, Lindmayr-Brandl, Andrea
%%abc-edited-by Mair-Gruber, Roland
%%humdrum-veritas 3153735974
%%humdrum-veritas-data 1443351889
%%linebreak <none>
%%barnumbers 0
L: 1/4
M: 2/2
N: Derived from Gas0303d-In_honorem_sancti_spiritus-Confirma_hoc_deus.krn
%%staves [1 2 3 4]
V: 1 clef=treble
V: 2 clef=treble-8
V: 3 clef=treble-8
V: 4 clef=bass
K: C
[V:1] z4 | 
[V:2] z4 | 
[V:3] G4 | 
[V:4] z4 | 
[V:1] z4 | 
[V:2] z4 | 
[V:3] G2A2 | 
[V:4] z4 | 
[V:1] z4 | 
[V:2] z4 | 
[V:3] Gc2B/A/ | 
[V:4] C,4 | 
[V:1] z4 | 
[V:2] z4 | 
[V:3] GA2G/F/ | 
[V:4] C,2D,2 | 
[V:1] z4 | 
[V:2] z4 | 
[V:3] E>FAG- | 
[V:4] C,4- | 
[V:1] z4 | 
[V:2] z4 | 
[V:3] G/F/E/D/E2 | 
[V:4] C,2C,2 | 
[V:1] z4 | 
[V:2] z4 | 
[V:3] D4 | 
[V:4] D,2G,,2- | 
[V:1] z4 | 
[V:2] z4 | 
[V:3] d2d/c/B/A/ | 
[V:4] G,,2G,2 | 
[V:1] z4 | 
[V:2] z4 | 
[V:3] GF/E<DE/ | 
[V:4] E,2F,2 | 
[V:1] z4 | 
[V:2] z4 | 
[V:3] F/G/A2B- | 
[V:4] D,>E,F,G,- | 
[V:1] z4 | 
[V:2] z4 | 
[V:3] BcA2 | 
[V:4] G,E,^F,2 | 
[V:1] z4 | 
[V:2] z4 | 
[V:3] G4 | 
[V:4] G,4 | 
[V:1] A4- | 
[V:2] d3e | 
[V:3] z4 | 
[V:4] z4 | 
[V:1] A2A2 | 
[V:2] f2f2 | 
[V:3] z4 | 
[V:4] z4 | 
[V:1] B4- | 
[V:2] g3f/e/ | 
[V:3] z4 | 
[V:4] z4 | 
[V:1] B4 | 
[V:2] d4 | 
[V:3] z4 | 
[V:4] z4 | 
[V:1] c2B2 | 
[V:2] e2g2 | 
[V:3] z4 | 
[V:4] z4 | 
[V:1] A2c2- | 
[V:2] f3e/d/ | 
[V:3] z4 | 
[V:4] z4 | 
[V:1] cB/A/G2 | 
[V:2] c>de2 | 
[V:3] z4 | 
[V:4] z4 | 
[V:1] A2B2 | 
[V:2] fd2c/B/ | 
[V:3] z4 | 
[V:4] z4 | 
[V:1] cA2G/F/ | 
[V:2] A2F/G/A/B/ | 
[V:3] z4 | 
[V:4] z4 | 
[V:1] EFG/F/E/D/ | 
[V:2] cdBe- | 
[V:3] z4 | 
[V:4] z4 | 
[V:1] CFE2 | 
[V:2] ed2^c | 
[V:3] z4 | 
[V:4] z4 | 
[V:1] D4 | 
[V:2] d4 | 
[V:3] z4 | 
[V:4] z4 | 
[V:1] z4 | 
[V:2] z4 | 
[V:3] A4 | 
[V:4] D,4 | 
[V:1] z4 | 
[V:2] z4 | 
[V:3] B2A2 | 
[V:4] D,3C, | 
[V:1] z4 | 
[V:2] z4 | 
[V:3] d3c | 
[V:4] B,,G,,A,,2 | 
[V:1] z4 | 
[V:2] z4 | 
[V:3] BGA2 | 
[V:4] G,,G,2F, | 
[V:1] z4 | 
[V:2] z4 | 
[V:3] Gc2B | 
[V:4] E,C,D,2 | 
[V:1] z4 | 
[V:2] z4 | 
[V:3] AFG2 | 
[V:4] C,F,2E, | 
[V:1] z4 | 
[V:2] z4 | 
[V:3] FA2G | 
[V:4] D,C,/B,,/A,,B,, | 
[V:1] z4 | 
[V:2] z4 | 
[V:3] FDE2 | 
[V:4] A,,D,2^C, | 
[V:1] A4 | 
[V:2] d4 | 
[V:3] D>EF2 | 
[V:4] D,4 | 
[V:1] B2A2 | 
[V:2] d>ef2 | 
[V:3] G2A2 | 
[V:4] G,,2D,2 | 
[V:1] d3c/B/ | 
[V:2] g2a2- | 
[V:3] G2F2 | 
[V:4] B,,G,,D,2 | 
[V:1] AcBA/G/ | 
[V:2] aagf/e/ | 
[V:3] zABd- | 
[V:4] F,2G,G,, | 
[V:1] ^FG2F | 
[V:2] dcd2 | 
[V:3] dGA2 | 
[V:4] D,E,D,2 | 
[V:1] G4 | 
[V:2] B2G2 | 
[V:3] G4 | 
[V:4] E,4 | 
[V:1] E2GA | 
[V:2] g3f | 
[V:3] c4 | 
[V:4] C,2E,F, | 
[V:1] GA2c- | 
[V:2] gcf2 | 
[V:3] c4 | 
[V:4] E,F,2E,/D,/ | 
[V:1] cB/A/G2 | 
[V:2] e4 | 
[V:3] c2c2 | 
[V:4] C,2E,2 | 
[V:1] F4 | 
[V:2] A2d2 | 
[V:3] d3c | 
[V:4] D,4 | 
[V:1] z2A2- | 
[V:2] c3B | 
[V:3] A4 | 
[V:4] F,4- | 
[V:1] A2B2 | 
[V:2] A2G2 | 
[V:3] c2B2 | 
[V:4] F,2G,2 | 
[V:1] c2AB- | 
[V:2] Ff>ed | 
[V:3] A2d3/c/ | 
[V:4] A,2F,G, | 
[V:1] BA2^G | 
[V:2] cde2 | 
[V:3] A2B2 | 
[V:4] A,F,E,2 | 
[V:1] A4 | 
[V:2] c2f2- | 
[V:3] A4 | 
[V:4] F,4 | 
[V:1] z4 | 
[V:2] fga2- | 
[V:3] z4 | 
[V:4] D,4 | 
[V:1] c4 | 
[V:2] ag/f/e2 | 
[V:3] z4 | 
[V:4] A,,4 | 
[V:1] d3A | 
[V:2] f2df | 
[V:3] z4 | 
[V:4] z4 | 
[V:1] Bc2A | 
[V:2] ea>gf | 
[V:3] z4 | 
[V:4] z4 | 
[V:1] Bd2c | 
[V:2] ede2 | 
[V:3] z4 | 
[V:4] z4 | 
[V:1] d3c/B/ | 
[V:2] d4 | 
[V:3] z4 | 
[V:4] z4 | 
[V:1] Ac2B/A/ | 
[V:2] f2c3/d/ | 
[V:3] z4 | 
[V:4] z4 | 
[V:1] G2F2 | 
[V:2] e2d2 | 
[V:3] z4 | 
[V:4] z4 | 
[V:1] z4 | 
[V:2] z4 | 
[V:3] d3c/B/ | 
[V:4] D,4 | 
[V:1] z4 | 
[V:2] z4 | 
[V:3] Ac2B/A/ | 
[V:4] F,2C,3/D,/ | 
[V:1] z4 | 
[V:2] z4 | 
[V:3] G2F2 | 
[V:4] E,2D,2 | 
[V:1] z4 | 
[V:2] z4 | 
[V:3] D/E/F/G/ A/B/c/d/ | 
[V:4] F,>E,D,C, | 
[V:1] z4 | 
[V:2] z4 | 
[V:3] cB/A/cB- | 
[V:4] A,,3G,, | 
[V:1] z4 | 
[V:2] z4 | 
[V:3] BA2^G | 
[V:4] A,,C,B,,2 | 
[V:1] z4 | 
[V:2] z4 | 
[V:3] A4 | 
[V:4] A,,4 | 
[V:1] z4 | 
[V:2] z4 | 
[V:3] c3B/A/ | 
[V:4] A,3G,/F,/ | 
[V:1] z4 | 
[V:2] z4 | 
[V:3] B2Ad- | 
[V:4] G,2F,2 | 
[V:1] z4 | 
[V:2] z4 | 
[V:3] dcdc/B/ | 
[V:4] E,2D,2 | 
[V:1] z4 | 
[V:2] z4 | 
[V:3] A/G/F/E/DG- | 
[V:4] C,2B,,2 | 
[V:1] c3B/A/ | 
[V:2] A4 | 
[V:3] G^F/E/^F2 | 
[V:4] A,,4 | 
[V:1] B2cA- | 
[V:2] D/E/F/G/A2- | 
[V:3] G2c2- | 
[V:4] G,,2zF,- | 
[V:1] AG/F/E2 | 
[V:2] ABc3/A/ | 
[V:3] c2c2 | 
[V:4] F,G,A,2 | 
[V:1] FD2G- | 
[V:2] A2zd- | 
[V:3] d2B2 | 
[V:4] D,2G,2 | 
[V:1] G^F/E/F2 | 
[V:2] d2d2 | 
[V:3] A4 | 
[V:4] D,4 | 
[V:1] G2zD | 
[V:2] Bd>cB/A/ | 
[V:3] G4 | 
[V:4] zG,,B,,2 | 
[V:1] E2F2 | 
[V:2] G2F/G/A/B/ | 
[V:3] z2zD | 
[V:4] C,2D,2 | 
[V:1] G2zA | 
[V:2] c>B A/G/F/E/ | 
[V:3] E2F2 | 
[V:4] zC,D,2 | 
[V:1] B2c2 | 
[V:2] D2Cc | 
[V:3] G2zA | 
[V:4] B,,2A,,2 | 
[V:1] d>cA2 | 
[V:2] BA/G<FG/ | 
[V:3] B2c2 | 
[V:4] zG,A,F,- | 
[V:1] zFGE | 
[V:2] A2zG | 
[V:3] d2Bc | 
[V:4] F,D,E,2 | 
[V:1] F/G/A/B<cB/ | 
[V:2] A2F3/G/ | 
[V:3] d2Ac- | 
[V:4] D,2zF,- | 
[V:1] A/G/G2^F | 
[V:2] AB/c/d2 | 
[V:3] cBA2 | 
[V:4] F,G,D,2 | 
[V:1] G4- | 
[V:2] B2B/c/d/e/ | 
[V:3] G4- | 
[V:4] E,3D,/C,/ | 
[V:1] G4- | 
[V:2] dedc | 
[V:3] G4- | 
[V:4] B,,C,B,,C, | 
[V:1] G4- | 
[V:2] B3c | 
[V:3] G4- | 
[V:4] G,,4- | 
[V:1] G4 |]  
[V:2] d4 |]  
[V:3] G4 |]  
[V:4] G,,4 |]  


